assets/img/twitter.svg

<?xml version="1.0" encoding="UTF-8"?>
<svg width="24px" height="19px" viewBox="0 0 24 19" version="1.1" xmlns="http://www.w3.org/2000/svg" xmlns:xlink="http://www.w3.org/1999/xlink">
    <!-- Generator: Sketch 39.1 (31720) - http://www.bohemiancoding.com/sketch -->
    <title>Stroke 39</title>
    <desc>Created with Sketch.</desc>
    <defs></defs>
    <g id="Page-1" stroke="none" stroke-width="1" fill="none" fill-rule="evenodd" stroke-linejoin="round">
        <g id="Stroke-39" stroke="#FFFFFF">
            <path d="M23.4072,2.834 C22.5932,3.197 21.9072,3.209 21.1792,2.85 C22.1182,2.288 22.1612,1.894 22.5002,0.831 C21.6222,1.352 20.6492,1.731 19.6142,1.936 C18.7862,1.053 17.6042,0.5 16.2982,0.5 C13.7882,0.5 11.7542,2.536 11.7542,5.044 C11.7542,5.401 11.7942,5.748 11.8712,6.08 C8.0942,5.891 4.7462,4.081 2.5052,1.331 C2.1142,2.003 1.8892,2.784 1.8892,3.617 C1.8892,5.194 2.6922,6.584 3.9112,7.399 C3.1662,7.375 2.4662,7.171 1.8532,6.831 C1.8522,6.85 1.8522,6.868 1.8522,6.888 C1.8522,9.09 3.4192,10.926 5.4982,11.344 C4.8322,11.525 4.1302,11.553 3.4452,11.422 C4.0242,13.227 5.7022,14.541 7.6902,14.578 C5.7462,16.102 3.3352,16.737 0.9632,16.459 C2.9742,17.748 5.3622,18.5 7.9292,18.5 C16.2872,18.5 20.8562,11.576 20.8562,5.571 C20.8562,5.373 20.8532,5.179 20.8442,4.983 C21.7312,4.343 22.7982,3.746 23.4072,2.834 L23.4072,2.834 Z"></path>
        </g>
    </g>
</svg>

<svg width="24" height="19" viewBox="0 0 24 19" xmlns="http://www.w3.org/2000/svg"><title>Stroke 39</title><path d="M23.407 2.834c-.814.363-1.5.375-2.228.016.938-.562.98-.956 1.32-2.02-.878.522-1.85.9-2.886 1.106C18.786 1.053 17.604.5 16.298.5c-2.51 0-4.544 2.036-4.544 4.544 0 .357.04.704.117 1.036-3.776-.19-7.124-2-9.365-4.75-.39.673-.616 1.454-.616 2.287 0 1.577.802 2.967 2.02 3.782-.744-.025-1.444-.23-2.057-.57v.058c0 2.202 1.566 4.038 3.645 4.456-.666.18-1.368.21-2.053.078.58 1.805 2.257 3.12 4.245 3.156-1.944 1.524-4.355 2.16-6.727 1.88 2.01 1.29 4.4 2.042 6.966 2.042 8.357 0 12.926-6.924 12.926-12.93 0-.197-.003-.39-.012-.587.887-.64 1.954-1.237 2.563-2.15z" stroke="#FFF" fill="none" fill-rule="evenodd" stroke-linejoin="round"/></svg>
